brandFactory_export/2.Regular/Capas_2Regular.svg

<?xml version="1.0" encoding="UTF-8"?>
<svg width="24px" height="24px" viewBox="0 0 24 24" version="1.1" xmlns="http://www.w3.org/2000/svg" xmlns:xlink="http://www.w3.org/1999/xlink">
    <title>2.Regular/Capas_2Regular</title>
    <g id="Symbols" stroke="none" stroke-width="1" fill="none" fill-rule="evenodd">
        <g id="2.Regular/Capas_2Regular" fill="#5CB615" fill-rule="nonzero">
            <path d="M11.7579832,17.0235294 L1.7512605,11.8605042 L3.65714286,10.8655462 L10.9747899,14.6436975 C11.2201681,14.7714286 11.4890756,14.8352941 11.7579832,14.8352941 C12.0235294,14.8352941 12.2890756,14.7714286 12.5310924,14.6504202 L19.9932773,10.8655462 L21.9394958,11.8638655 L11.7579832,17.0235294 Z M21.9394958,15.7731092 L11.7579832,20.9361345 L1.7512605,15.7731092 L3.65714286,14.7815126 L10.9747899,18.5563025 C11.2201681,18.6840336 11.4890756,18.7478992 11.7579832,18.7478992 C12.0235294,18.7478992 12.2890756,18.6840336 12.5310924,18.5630252 L19.9932773,14.7781513 L21.9394958,15.7731092 L21.9394958,15.7731092 Z M11.7579832,2.73781513 L21.9394958,7.94453782 L11.7579832,13.1109244 L1.7512605,7.94453782 L11.7579832,2.73781513 Z M23.6571429,11.8638655 C23.6571429,11.2117647 23.2941176,10.6168067 22.7159664,10.3210084 L21.892437,9.90084034 L22.7092437,9.48739496 C23.287395,9.19495798 23.6537815,8.6 23.6537815,7.94789916 C23.6537815,7.29579832 23.2907563,6.70084034 22.712605,6.40504202 L12.5310924,1.19831933 C12.2857143,1.07394958 12.0201681,1.01008403 11.7512605,1.01008403 C11.4789916,1.01008403 11.210084,1.07394958 10.9613445,1.20504202 L0.954621849,6.41176471 C0.383193277,6.70756303 0.0268907563,7.30252101 0.0268907563,7.94789916 C0.0268907563,8.59327731 0.386554622,9.18487395 0.961344538,9.48067227 L1.77478992,9.90084034 L0.954621849,10.3277311 C0.383193277,10.6235294 0.0268907563,11.2151261 0.0268907563,11.8638655 C0.0268907563,12.512605 0.386554622,13.1008403 0.961344538,13.3966387 L1.77478992,13.8168067 L0.954621849,14.2436975 C0.383193277,14.5394958 0.0268907563,15.1344538 0.0268907563,15.7798319 C0.0268907563,16.4252101 0.386554622,17.0168067 0.961344538,17.312605 L10.9680672,22.4756303 C11.2134454,22.6033613 11.4823529,22.6638655 11.7512605,22.6638655 C12.0168067,22.6638655 12.2823529,22.6033613 12.5243697,22.4789916 L22.7058824,17.3159664 C23.2840336,17.0235294 23.6504202,16.4285714 23.6504202,15.7764706 C23.6504202,15.1243697 23.287395,14.5294118 22.7092437,14.2336134 L21.8857143,13.8134454 L22.702521,13.3966387 C23.2907563,13.107563 23.6571429,12.512605 23.6571429,11.8638655 Z" id="Capas_2Regular"></path>
        </g>
    </g>
</svg>

<svg width="24" height="24" viewBox="0 0 24 24" xmlns="http://www.w3.org/2000/svg"><path d="M11.758 17.024L1.751 11.86l1.906-.995 7.318 3.778a1.695 1.695 0 001.556.006l7.462-3.784 1.946.998-10.181 5.16zm10.181-1.25l-10.181 5.162-10.007-5.163 1.906-.991 7.318 3.774a1.695 1.695 0 001.556.007l7.462-3.785 1.946.995zM11.758 2.737l10.181 5.207-10.181 5.166L1.751 7.945l10.007-5.207zm11.9 9.126a1.73 1.73 0 00-.942-1.543l-.824-.42.817-.414a1.73 1.73 0 00.003-3.082l-10.18-5.207a1.72 1.72 0 00-.78-.188c-.273 0-.542.064-.79.195L.954 6.412A1.728 1.728 0 00.96 9.48l.814.42-.82.427a1.724 1.724 0 00-.928 1.536c0 .649.36 1.237.934 1.533l.814.42-.82.427a1.728 1.728 0 00.006 3.069l10.007 5.163c.245.127.514.188.783.188.266 0 .531-.06.773-.185l10.182-5.163a1.73 1.73 0 00.003-3.082l-.823-.42.817-.417c.588-.29.954-.884.954-1.533z" fill="#5CB615" fill-rule="nonzero"/></svg>
